assets/icons/actions/search.svg

<svg viewBox="0 0 24 24" xmlns="http://www.w3.org/2000/svg">
<path d="M18.9 20.3L13.3 14.7C12.8 15.1 12.225 15.4167 11.575 15.65C10.925 15.8833 10.2333 16 9.5 16C7.68333 16 6.146 15.371 4.888 14.113C3.62933 12.8543 3 11.3167 3 9.5C3 7.68333 3.62933 6.14567 4.888 4.887C6.146 3.629 7.68333 3 9.5 3C11.3167 3 12.8543 3.629 14.113 4.887C15.371 6.14567 16 7.68333 16 9.5C16 10.2333 15.8833 10.925 15.65 11.575C15.4167 12.225 15.1 12.8 14.7 13.3L20.325 18.925C20.5083 19.1083 20.6 19.3333 20.6 19.6C20.6 19.8667 20.5 20.1 20.3 20.3C20.1167 20.4833 19.8833 20.575 19.6 20.575C19.3167 20.575 19.0833 20.4833 18.9 20.3ZM9.5 14C10.75 14 11.8127 13.5627 12.688 12.688C13.5627 11.8127 14 10.75 14 9.5C14 8.25 13.5627 7.18733 12.688 6.312C11.8127 5.43733 10.75 5 9.5 5C8.25 5 7.18733 5.43733 6.312 6.312C5.43733 7.18733 5 8.25 5 9.5C5 10.75 5.43733 11.8127 6.312 12.688C7.18733 13.5627 8.25 14 9.5 14Z" fill="inherit"/>
</svg>

<svg viewBox="0 0 24 24" xmlns="http://www.w3.org/2000/svg"><path d="m18.9 20.3-5.6-5.6A6 6 0 0 1 9.5 16c-1.8 0-3.4-.6-4.6-1.9A6.3 6.3 0 0 1 3 9.5c0-1.8.6-3.4 1.9-4.6A6.3 6.3 0 0 1 9.5 3c1.8 0 3.4.6 4.6 1.9A6.3 6.3 0 0 1 16 9.5a6.1 6.1 0 0 1-1.3 3.8l5.6 5.6c.2.2.3.4.3.7 0 .3-.1.5-.3.7a1 1 0 0 1-.7.3 1 1 0 0 1-.7-.3ZM9.5 14c1.3 0 2.3-.4 3.2-1.3.9-.9 1.3-2 1.3-3.2 0-1.3-.4-2.3-1.3-3.2-.9-.9-2-1.3-3.2-1.3-1.3 0-2.3.4-3.2 1.3-.9.9-1.3 2-1.3 3.2 0 1.3.4 2.3 1.3 3.2.9.9 2 1.3 3.2 1.3Z" fill="inherit"/></svg>
